assets/images/format_quote.svg

<svg width="24" height="24" viewBox="0 0 24 24" fill="none" xmlns="http://www.w3.org/2000/svg">
<g id="format_quote">
<mask id="mask0_112_368" style="mask-type:alpha" maskUnits="userSpaceOnUse" x="0" y="0" width="24" height="24">
<rect id="Bounding box" width="24" height="24" fill="#D9D9D9"/>
</mask>
<g mask="url(#mask0_112_368)">
<path id="format_quote_2" d="M5.7 18L8 14C6.9 14 5.95833 13.6083 5.175 12.825C4.39167 12.0417 4 11.1 4 10C4 8.9 4.39167 7.95833 5.175 7.175C5.95833 6.39167 6.9 6 8 6C9.1 6 10.0417 6.39167 10.825 7.175C11.6083 7.95833 12 8.9 12 10C12 10.3833 11.9542 10.7375 11.8625 11.0625C11.7708 11.3875 11.6333 11.7 11.45 12L8 18H5.7ZM14.7 18L17 14C15.9 14 14.9583 13.6083 14.175 12.825C13.3917 12.0417 13 11.1 13 10C13 8.9 13.3917 7.95833 14.175 7.175C14.9583 6.39167 15.9 6 17 6C18.1 6 19.0417 6.39167 19.825 7.175C20.6083 7.95833 21 8.9 21 10C21 10.3833 20.9542 10.7375 20.8625 11.0625C20.7708 11.3875 20.6333 11.7 20.45 12L17 18H14.7Z" fill="#328C3C"/>
</g>
</g>
</svg>

<svg xmlns="http://www.w3.org/2000/svg" width="24" height="24" fill="none"><mask id="a" width="24" height="24" x="0" y="0" maskUnits="userSpaceOnUse" style="mask-type:alpha"><path fill="#D9D9D9" d="M0 0h24v24H0z"/></mask><g mask="url(#a)"><path fill="#328C3C" d="M5.7 18 8 14c-1.1 0-2.042-.392-2.825-1.175C4.392 12.042 4 11.1 4 10s.392-2.042 1.175-2.825C5.958 6.392 6.9 6 8 6s2.042.392 2.825 1.175C11.608 7.958 12 8.9 12 10c0 .383-.046.738-.137 1.063a3.74 3.74 0 0 1-.413.937L8 18H5.7Zm9 0 2.3-4c-1.1 0-2.042-.392-2.825-1.175C13.392 12.042 13 11.1 13 10s.392-2.042 1.175-2.825C14.958 6.392 15.9 6 17 6s2.042.392 2.825 1.175C20.608 7.958 21 8.9 21 10c0 .383-.046.738-.137 1.063a3.74 3.74 0 0 1-.413.937L17 18h-2.3Z"/></g></svg>
